assets/usdc.svg

<svg width="32" height="32" viewBox="0 0 32 32" fill="none" xmlns="http://www.w3.org/2000/svg">
<g clip-path="url(#clip0_1075_46974)">
<path d="M16 32C24.8366 32 32 24.8366 32 16C32 7.16344 24.8366 0 16 0C7.16344 0 0 7.16344 0 16C0 24.8366 7.16344 32 16 32Z" fill="#3E73C4"/>
<path d="M20.0216 18.1243C20.0216 16.0003 18.7416 15.2723 16.1816 14.9683C14.3536 14.7253 13.9886 14.2403 13.9886 13.3903C13.9886 12.5403 14.5986 11.9943 15.8166 11.9943C16.9136 11.9943 17.5236 12.3582 17.8276 13.2692C17.8592 13.3573 17.9172 13.4336 17.9935 13.4878C18.0698 13.542 18.161 13.5714 18.2546 13.5722H19.2296C19.2859 13.5738 19.3419 13.5638 19.3943 13.543C19.4466 13.5222 19.4942 13.491 19.5341 13.4512C19.5741 13.4115 19.6055 13.3641 19.6265 13.3118C19.6476 13.2596 19.6578 13.2036 19.6566 13.1473V13.0872C19.5374 12.4281 19.2039 11.8269 18.7079 11.3768C18.2119 10.9267 17.5811 10.653 16.9136 10.5982V9.14225C16.9136 8.89925 16.7306 8.71725 16.4266 8.65625H15.5116C15.2686 8.65625 15.0856 8.83825 15.0246 9.14225V10.5382C13.1956 10.7803 12.0386 11.9942 12.0386 13.5122C12.0386 15.5142 13.2566 16.3033 15.8166 16.6073C17.5236 16.9103 18.0716 17.2753 18.0716 18.2463C18.0716 19.2163 17.2186 19.8843 16.0606 19.8843C14.4756 19.8843 13.9276 19.2172 13.7446 18.3062C13.6846 18.0642 13.5006 17.9422 13.3176 17.9422H12.2816C12.2253 17.9409 12.1694 17.9509 12.1172 17.9718C12.0649 17.9927 12.0175 18.0239 11.9777 18.0636C11.9378 18.1034 11.9065 18.1507 11.8855 18.2029C11.8645 18.2551 11.8543 18.311 11.8556 18.3673V18.4272C12.0986 19.9452 13.0746 21.0372 15.0856 21.3412V22.7983C15.0856 23.0402 15.2686 23.2233 15.5726 23.2833H16.4876C16.7306 23.2833 16.9136 23.1013 16.9746 22.7983V21.3403C18.8036 21.0372 20.0216 19.7622 20.0216 18.1232V18.1243Z" fill="white"/>
<path d="M12.8923 24.497C8.13829 22.797 5.70029 17.517 7.46829 12.844C8.38229 10.294 10.3933 8.353 12.8923 7.442C13.1363 7.321 13.2573 7.139 13.2573 6.835V5.985C13.2573 5.743 13.1363 5.561 12.8923 5.5C12.8313 5.5 12.7093 5.5 12.6483 5.56C11.2767 5.98832 10.0034 6.68373 8.90171 7.60617C7.8 8.52862 6.89164 9.65988 6.22893 10.9348C5.56622 12.2098 5.16226 13.6032 5.04029 15.0349C4.91833 16.4666 5.08078 17.9083 5.51829 19.277C6.61429 22.677 9.23529 25.287 12.6483 26.379C12.8923 26.5 13.1363 26.379 13.1963 26.136C13.2573 26.076 13.2573 26.014 13.2573 25.893V25.043C13.2573 24.861 13.0753 24.619 12.8923 24.497ZM19.3523 5.561C19.1083 5.439 18.8643 5.561 18.8043 5.803C18.7433 5.864 18.7433 5.925 18.7433 6.046V6.896C18.7433 7.139 18.9253 7.381 19.1083 7.503C23.8623 9.203 26.3003 14.483 24.5323 19.156C23.6183 21.706 21.6073 23.647 19.1083 24.558C18.8643 24.679 18.7433 24.861 18.7433 25.165V26.015C18.7433 26.257 18.8643 26.439 19.1083 26.5C19.1693 26.5 19.2913 26.5 19.3523 26.44C20.7239 26.0117 21.9972 25.3163 23.0989 24.3938C24.2006 23.4714 25.1089 22.3401 25.7716 21.0652C26.4343 19.7902 26.8383 18.3968 26.9603 16.9651C27.0822 15.5334 26.9198 14.0917 26.4823 12.723C25.3863 9.263 22.7043 6.653 19.3523 5.561Z" fill="white"/>
</g>
<defs>
<clipPath id="clip0_1075_46974">
<rect width="32" height="32" fill="white"/>
</clipPath>
</defs>
</svg>

<?xml version="1.0" encoding="utf-8"?>
<!-- Uploaded to: SVG Repo, www.svgrepo.com, Generator: SVG Repo Mixer Tools -->
<svg width="800px" height="800px" viewBox="0 0 32 32" xmlns="http://www.w3.org/2000/svg">
<g fill="none">
<circle fill="#3E73C4" cx="16" cy="16" r="16"/>
<g fill="#FFF">
<path d="M20.022 18.124c0-2.124-1.28-2.852-3.84-3.156-1.828-.243-2.193-.728-2.193-1.578 0-.85.61-1.396 1.828-1.396 1.097 0 1.707.364 2.011 1.275a.458.458 0 00.427.303h.975a.416.416 0 00.427-.425v-.06a3.04 3.04 0 00-2.743-2.489V9.142c0-.243-.183-.425-.487-.486h-.915c-.243 0-.426.182-.487.486v1.396c-1.829.242-2.986 1.456-2.986 2.974 0 2.002 1.218 2.791 3.778 3.095 1.707.303 2.255.668 2.255 1.639 0 .97-.853 1.638-2.011 1.638-1.585 0-2.133-.667-2.316-1.578-.06-.242-.244-.364-.427-.364h-1.036a.416.416 0 00-.426.425v.06c.243 1.518 1.219 2.61 3.23 2.914v1.457c0 .242.183.425.487.485h.915c.243 0 .426-.182.487-.485V21.34c1.829-.303 3.047-1.578 3.047-3.217z"/>
<path d="M12.892 24.497c-4.754-1.7-7.192-6.98-5.424-11.653.914-2.55 2.925-4.491 5.424-5.402.244-.121.365-.303.365-.607v-.85c0-.242-.121-.424-.365-.485-.061 0-.183 0-.244.06a10.895 10.895 0 00-7.13 13.717c1.096 3.4 3.717 6.01 7.13 7.102.244.121.488 0 .548-.243.061-.06.061-.122.061-.243v-.85c0-.182-.182-.424-.365-.546zm6.46-18.936c-.244-.122-.488 0-.548.242-.061.061-.061.122-.061.243v.85c0 .243.182.485.365.607 4.754 1.7 7.192 6.98 5.424 11.653-.914 2.55-2.925 4.491-5.424 5.402-.244.121-.365.303-.365.607v.85c0 .242.121.424.365.485.061 0 .183 0 .244-.06a10.895 10.895 0 007.13-13.717c-1.096-3.46-3.778-6.07-7.13-7.162z"/>
</g>
</g>
</svg>
